svgs/thin/circle-6.svg

<svg xmlns="http://www.w3.org/2000/svg" viewBox="0 0 512 512"><!-- Font Awesome Pro 6.0.0-alpha2 by @fontawesome - https://fontawesome.com License - https://fontawesome.com/license (Commercial License) --><path d="M256 192C251.453 192 247.104 192.727 242.723 193.342L301.281 142.031C304.594 139.094 304.938 134.063 302.031 130.719C300.438 128.938 298.219 128 296 128C294.125 128 292.25 128.656 290.719 129.969C290.719 129.969 191.561 217.27 191.346 217.51C172.213 235.07 160 260.043 160 288C160 340.938 203.062 384 256 384S352 340.938 352 288S308.938 192 256 192ZM256 368C211.875 368 176 332.125 176 288S211.875 208 256 208S336 243.875 336 288S300.125 368 256 368ZM256 16C123.451 16 16 123.451 16 256S123.451 496 256 496S496 388.549 496 256S388.549 16 256 16ZM256 480C132.486 480 32 379.514 32 256S132.486 32 256 32S480 132.486 480 256S379.514 480 256 480Z"/></svg>

<svg xmlns="http://www.w3.org/2000/svg" viewBox="0 0 512 512"><!--! Font Awesome Pro 6.3.0 by @fontawesome - https://fontawesome.com License - https://fontawesome.com/license (Commercial License) Copyright 2023 Fonticons, Inc. --><path d="M256 192C251.5 192 247.1 192.7 242.7 193.3l58.56-51.31c3.312-2.938 3.656-7.969 .75-11.31C300.4 128.9 298.2 128 296 128c-1.875 0-3.75 .6562-5.281 1.969c0 0-99.16 87.3-99.37 87.54C172.2 235.1 160 260 160 288c0 52.94 43.06 96 96 96s96-43.06 96-96S308.9 192 256 192zM256 368c-44.13 0-80-35.88-80-80S211.9 208 256 208s80 35.88 80 80S300.1 368 256 368zM256 0C114.6 0 0 114.6 0 256s114.6 256 256 256s256-114.6 256-256S397.4 0 256 0zM256 496c-132.3 0-240-107.7-240-240S123.7 16 256 16s240 107.7 240 240S388.3 496 256 496z"/></svg>
